packages/assets/static/images/icons/upload-simple.svg

<svg width="24" height="24" viewBox="0 0 24 24" xmlns="http://www.w3.org/2000/svg">
<path d="M21.375 13.4999V19.4999C21.375 19.7983 21.2565 20.0844 21.0455 20.2954C20.8345 20.5064 20.5484 20.6249 20.25 20.6249H3.75C3.45163 20.6249 3.16548 20.5064 2.9545 20.2954C2.74353 20.0844 2.625 19.7983 2.625 19.4999V13.4999C2.625 13.2015 2.74353 12.9154 2.9545 12.7044C3.16548 12.4934 3.45163 12.3749 3.75 12.3749C4.04837 12.3749 4.33452 12.4934 4.5455 12.7044C4.75647 12.9154 4.875 13.2015 4.875 13.4999V18.3749H19.125V13.4999C19.125 13.2015 19.2435 12.9154 19.4545 12.7044C19.6655 12.4934 19.9516 12.3749 20.25 12.3749C20.5484 12.3749 20.8345 12.4934 21.0455 12.7044C21.2565 12.9154 21.375 13.2015 21.375 13.4999ZM9.04594 7.54585L10.875 5.71866V13.4999C10.875 13.7983 10.9935 14.0844 11.2045 14.2954C11.4155 14.5064 11.7016 14.6249 12 14.6249C12.2984 14.6249 12.5845 14.5064 12.7955 14.2954C13.0065 14.0844 13.125 13.7983 13.125 13.4999V5.71866L14.9541 7.54866C15.0587 7.65331 15.1829 7.73632 15.3197 7.79295C15.4564 7.84959 15.6029 7.87874 15.7509 7.87874C15.8989 7.87874 16.0455 7.84959 16.1822 7.79295C16.3189 7.73632 16.4432 7.65331 16.5478 7.54866C16.6525 7.44401 16.7355 7.31978 16.7921 7.18305C16.8487 7.04632 16.8779 6.89978 16.8779 6.75179C16.8779 6.60379 16.8487 6.45725 16.7921 6.32052C16.7355 6.18379 16.6525 6.05956 16.5478 5.95491L12.7978 2.20491C12.6933 2.10003 12.5691 2.01681 12.4324 1.96003C12.2956 1.90325 12.149 1.87402 12.0009 1.87402C11.8529 1.87402 11.7063 1.90325 11.5695 1.96003C11.4328 2.01681 11.3086 2.10003 11.2041 2.20491L7.45406 5.95491C7.34942 6.05956 7.2664 6.18379 7.20977 6.32052C7.15314 6.45725 7.12399 6.60379 7.12399 6.75179C7.12399 7.05067 7.24272 7.33732 7.45406 7.54866C7.66541 7.76 7.95205 7.87874 8.25094 7.87874C8.54982 7.87874 8.83647 7.76 9.04781 7.54866L9.04594 7.54585Z"/>
</svg>

<svg viewBox="0 0 24 24" xmlns="http://www.w3.org/2000/svg" aria-hidden="true" fill="currentColor" height="24px" width="24px"><path d="M21.375 13.5v6a1.125 1.125 0 0 1-1.125 1.125H3.75A1.125 1.125 0 0 1 2.625 19.5v-6a1.125 1.125 0 0 1 2.25 0v4.875h14.25V13.5a1.125 1.125 0 1 1 2.25 0M9.045 7.546l1.83-1.827v7.78a1.125 1.125 0 1 0 2.25 0V5.72l1.83 1.83a1.126 1.126 0 0 0 1.923-.797 1.13 1.13 0 0 0-.33-.797l-3.75-3.75a1.125 1.125 0 0 0-1.594 0l-3.75 3.75a1.127 1.127 0 0 0 1.594 1.594z"/></svg>
